static/assets/images/tokens/usda.svg

<svg width="256" height="256" viewBox="0 0 256 256" fill="none" xmlns="http://www.w3.org/2000/svg">
<path d="M128 256C198.692 256 256 198.692 256 128C256 57.3075 198.692 0 128 0C57.3075 0 0 57.3075 0 128C0 198.692 57.3075 256 128 256Z" fill="black"/>
<path d="M110.813 86.3797H127.503L89.6989 169.682H73.0094L110.813 86.3797ZM144.201 86.3797H127.512L165.315 169.682H182.005L144.201 86.3797ZM127.366 127.523L144.027 169.826H110.706L127.366 127.523Z" fill="white"/>
<path d="M219.246 140.857C212.809 185.385 174.488 219.597 128.176 219.597C81.8647 219.597 43.5436 185.385 37.1068 140.857H22.7553C29.2907 193.265 73.9976 233.819 128.176 233.819C182.355 233.819 227.062 193.265 233.597 140.857H219.246ZM37.1068 114.296C43.5436 69.7669 81.8647 35.5555 128.176 35.5555C174.488 35.5555 212.809 69.7669 219.246 114.296H233.597C227.062 61.8872 182.355 21.3333 128.176 21.3333C73.9976 21.3333 29.2907 61.8872 22.7555 114.296H37.1068Z" fill="white"/>
</svg>

<svg xmlns="http://www.w3.org/2000/svg" fill="none" viewBox="0 0 256 256"><path fill="#000" d="M128 256c70.692 0 128-57.308 128-128S198.692 0 128 0 0 57.308 0 128s57.308 128 128 128"/><path fill="#fff" d="M110.813 86.38h16.69l-37.804 83.302h-16.69zm33.388 0h-16.689l37.803 83.302h16.69zm-16.835 41.143 16.661 42.303h-33.321z"/><path fill="#fff" d="M219.246 140.857c-6.437 44.528-44.758 78.74-91.07 78.74s-84.632-34.212-91.07-78.74h-14.35c6.535 52.408 51.242 92.962 105.42 92.962s98.886-40.554 105.421-92.962zm-182.14-26.561c6.438-44.53 44.759-78.74 91.07-78.74 46.312 0 84.633 34.21 91.07 78.74h14.351c-6.535-52.409-51.242-92.963-105.421-92.963-54.178 0-98.885 40.554-105.42 92.963z"/></svg>
